X:1
T:Title
%%score { ( 1 2 ) | ( 3 4 ) }
L:1/8
Q:1/4=100
M:4/4
K:Ab
V:1 treble nm="Grand Piano"
V:2 treble 
V:3 bass 
V:4 bass 
V:1
 z4 z2 B2 | [CA]4 c2 [Fd]2 | [Ec]2 [EB]2 [CA]4 | z4 z2 d2 | z4 c4 | B4 [EA]2 [DB]2 | z2 B2 z4 | %7
 [DA]4 [CA]4 |] %8
V:2
 [CA]2 [EB]2 [Ec]2 z G, | x8 | x8 | c2 [Ad]2 [Ge]2 FG | [EAc]2 [EGB]2 [CA]2 E2 | x8 | %6
 [Cc]2 z G, [CA]4 | x8 |] %8
V:3
 [A,,E,]2 [E,G,]2 [A,,A,]2 .[E,A,E]2 | [A,,E,]4 [A,E]2 [D,A,]2 | [E,A,]2 [E,G,]2 [A,,E,]4 | %3
 [A,E]2 [F,A,]2 [E,B,]2 B,D | C,D, E,2 z2 A,2 | [E,G,E]4 [C,A,]2 [B,,G,]2 | %6
 [A,,A,]2 .[E,A,E]2 [A,,E,]4 | [D,F,]4 [A,,E,]4 |] %8
V:4
 x8 | x8 | x8 | z4 z2 B,,2 | z4 A,,4 | x8 | x8 | x8 |] %8

